storage/app/icons/phosphoricons/regular/microsoft-excel-logo.svg

<svg xmlns="http://www.w3.org/2000/svg" fill="currentColor" viewBox="0 0 256 256"><path d="M200 24H72a16 16 0 0 0-16 16v24H40a16 16 0 0 0-16 16v96a16 16 0 0 0 16 16h16v24a16 16 0 0 0 16 16h128a16 16 0 0 0 16-16V40a16 16 0 0 0-16-16m-40 80h40v48h-40Zm40-16h-40v-8a16 16 0 0 0-16-16V40h56ZM72 40h56v24H72ZM40 80h104v96H40Zm32 112h56v24H72Zm72 24v-24a16 16 0 0 0 16-16v-8h40v48Zm-78.15-69.12L81.59 128l-15.74-18.88a8 8 0 0 1 12.3-10.24L92 115.5l13.85-16.62a8 8 0 1 1 12.3 10.24L102.41 128l15.74 18.88a8 8 0 0 1-12.3 10.24L92 140.5l-13.85 16.62a8 8 0 0 1-12.3-10.24"/></svg>

<svg xmlns="http://www.w3.org/2000/svg" viewBox="0 0 256 256" fill="currentColor"><path d="M200,24H72A16,16,0,0,0,56,40V64H40A16,16,0,0,0,24,80v96a16,16,0,0,0,16,16H56v24a16,16,0,0,0,16,16H200a16,16,0,0,0,16-16V40A16,16,0,0,0,200,24Zm-40,80h40v48H160Zm40-16H160V80a16,16,0,0,0-16-16V40h56ZM72,40h56V64H72ZM40,80H144v79.83c0,.06,0,.11,0,.17s0,.11,0,.17V176H40ZM72,192h56v24H72Zm72,24V192a16,16,0,0,0,16-16v-8h40v48ZM65.85,146.88,81.59,128,65.85,109.12a8,8,0,0,1,12.3-10.24L92,115.5l13.85-16.62a8,8,0,1,1,12.3,10.24L102.41,128l15.74,18.88a8,8,0,0,1-12.3,10.24L92,140.5,78.15,157.12a8,8,0,0,1-12.3-10.24Z"/></svg>
